packages/icons/src/components/Icon/assets/small-outline/address.svg

<svg width="16" height="16" viewBox="0 0 16 16" fill="none" xmlns="http://www.w3.org/2000/svg">
<path fill-rule="evenodd" clip-rule="evenodd" d="M8.00006 2.22628C5.49853 2.22628 3.47065 4.23936 3.47065 6.72263C3.47065 8.93058 4.63856 10.701 5.86839 11.951C6.47941 12.572 7.09219 13.0502 7.5522 13.3728C7.72737 13.4956 7.87958 13.5953 8.00006 13.6713C8.12054 13.5953 8.27275 13.4956 8.44791 13.3728C8.90793 13.0502 9.52071 12.572 10.1317 11.951C11.3616 10.701 12.5295 8.93058 12.5295 6.72263C12.5295 4.23936 10.5016 2.22628 8.00006 2.22628ZM8.00006 14.3869C7.70335 14.9246 7.70314 14.9245 7.70291 14.9244L7.70234 14.9241L7.70086 14.9233L7.69649 14.9209L7.68225 14.913C7.67035 14.9063 7.65369 14.8969 7.63259 14.8848C7.59038 14.8605 7.53035 14.8252 7.45505 14.7792C7.30453 14.6872 7.0925 14.5518 6.83946 14.3743C6.3344 14.0202 5.66041 13.4946 4.98467 12.8078C3.64097 11.4421 2.23535 9.38037 2.23535 6.72263C2.23535 3.56211 4.8163 1 8.00006 1C11.1838 1 13.7648 3.56211 13.7648 6.72263C13.7648 9.38037 12.3591 11.4421 11.0154 12.8078C10.3397 13.4946 9.66572 14.0202 9.16066 14.3743C8.90761 14.5518 8.69559 14.6872 8.54506 14.7792C8.46976 14.8252 8.40973 14.8605 8.36753 14.8848C8.34642 14.8969 8.32976 14.9063 8.31787 14.913L8.30363 14.9209L8.29926 14.9233L8.29777 14.9241L8.29721 14.9244C8.29698 14.9245 8.29676 14.9246 8.00006 14.3869ZM8.00006 14.3869L8.29676 14.9246C8.11191 15.0251 7.8882 15.0251 7.70335 14.9246L8.00006 14.3869ZM8.00006 5.29197C7.20412 5.29197 6.55888 5.9325 6.55888 6.72263C6.55888 7.51276 7.20412 8.15328 8.00006 8.15328C8.796 8.15328 9.44123 7.51276 9.44123 6.72263C9.44123 5.9325 8.796 5.29197 8.00006 5.29197ZM5.32359 6.72263C5.32359 5.25524 6.52188 4.06569 8.00006 4.06569C9.47823 4.06569 10.6765 5.25524 10.6765 6.72263C10.6765 8.19001 9.47823 9.37956 8.00006 9.37956C6.52188 9.37956 5.32359 8.19001 5.32359 6.72263Z" fill="black"/>
</svg>

<svg xmlns="http://www.w3.org/2000/svg" width="16" height="16" fill="none" viewBox="0 0 16 16">
    <path fill="#000" fill-rule="evenodd" d="M8 2.226c-2.501 0-4.53 2.013-4.53 4.497 0 2.208 1.169 3.978 2.398 5.228A12.3 12.3 0 0 0 8 13.671a12.3 12.3 0 0 0 2.132-1.72c1.23-1.25 2.397-3.02 2.397-5.228 0-2.484-2.027-4.497-4.529-4.497m0 12.16-.297.538H7.7l-.005-.003-.014-.008a7 7 0 0 1-.227-.134 13.5 13.5 0 0 1-2.47-1.971c-1.344-1.366-2.75-3.428-2.75-6.085C2.235 3.563 4.816 1 8 1s5.765 2.562 5.765 5.723c0 2.657-1.406 4.72-2.75 6.085a13.5 13.5 0 0 1-2.47 1.971 8 8 0 0 1-.227.134l-.014.008-.005.002-.001.001zm0 0 .297.539c-.185.1-.409.1-.594 0zm0-9.094c-.796 0-1.441.64-1.441 1.43S7.204 8.154 8 8.154s1.441-.64 1.441-1.43-.645-1.431-1.44-1.431m-2.676 1.43A2.667 2.667 0 0 1 8 4.067a2.667 2.667 0 0 1 2.677 2.657A2.667 2.667 0 0 1 8 9.38a2.667 2.667 0 0 1-2.676-2.657" clip-rule="evenodd"/>
</svg>
